apps/docs/public/icons/deepseek.svg

<?xml version="1.0" encoding="UTF-8"?>
<svg viewBox="0 0 30 30" fill="none" xmlns="http://www.w3.org/2000/svg">
	<path id="path" d="M27.501 8.46875C27.249 8.3457 27.1406 8.58008 26.9932 8.69922C26.9434 8.73828 26.9004 8.78906 26.8584 8.83398C26.4902 9.22852 26.0605 9.48633 25.5 9.45508C24.6787 9.41016 23.9785 9.66797 23.3594 10.2969C23.2275 9.52148 22.79 9.05859 22.125 8.76172C21.7764 8.60742 21.4238 8.45312 21.1807 8.11719C21.0098 7.87891 20.9639 7.61328 20.8779 7.35156C20.8242 7.19336 20.7695 7.03125 20.5879 7.00391C20.3906 6.97266 20.3135 7.13867 20.2363 7.27734C19.9258 7.84375 19.8066 8.46875 19.8174 9.10156C19.8447 10.5234 20.4453 11.6562 21.6367 12.4629C21.7725 12.5547 21.8076 12.6484 21.7646 12.7832C21.6836 13.0605 21.5869 13.3301 21.501 13.6074C21.4473 13.7852 21.3662 13.8242 21.1768 13.7461C20.5225 13.4727 19.957 13.0684 19.458 12.5781C18.6104 11.7578 17.8438 10.8516 16.8877 10.1426C16.6631 9.97656 16.4395 9.82227 16.207 9.67578C15.2314 8.72656 16.335 7.94727 16.5898 7.85547C16.8574 7.75977 16.6826 7.42773 15.8193 7.43164C14.957 7.43555 14.167 7.72461 13.1611 8.10938C13.0137 8.16797 12.8594 8.21094 12.7002 8.24414C11.7871 8.07227 10.8389 8.0332 9.84766 8.14453C7.98242 8.35352 6.49219 9.23633 5.39648 10.7441C4.08105 12.5547 3.77148 14.6133 4.15039 16.7617C4.54883 19.0234 5.70215 20.8984 7.47559 22.3633C9.31348 23.8809 11.4307 24.625 13.8457 24.4824C15.3125 24.3984 16.9463 24.2012 18.7881 22.6406C19.2529 22.8711 19.7402 22.9629 20.5498 23.0332C21.1729 23.0918 21.7725 23.002 22.2373 22.9062C22.9648 22.752 22.9141 22.0781 22.6514 21.9531C20.5186 20.959 20.9863 21.3633 20.5605 21.0371C21.6445 19.752 23.2783 18.418 23.917 14.0977C23.9668 13.7539 23.9238 13.5391 23.917 13.2598C23.9131 13.0918 23.9512 13.0254 24.1445 13.0059C24.6787 12.9453 25.1973 12.7988 25.6738 12.5352C27.0557 11.7793 27.6123 10.5391 27.7441 9.05078C27.7637 8.82422 27.7402 8.58789 27.501 8.46875ZM15.46 21.8613C13.3926 20.2344 12.3906 19.6992 11.9766 19.7227C11.5898 19.7441 11.6592 20.1875 11.7441 20.4766C11.833 20.7617 11.9492 20.959 12.1123 21.209C12.2246 21.375 12.3018 21.623 12 21.8066C11.334 22.2207 10.1768 21.668 10.1221 21.6406C8.77539 20.8477 7.64941 19.7988 6.85547 18.3652C6.08984 16.9844 5.64453 15.5039 5.57129 13.9238C5.55176 13.541 5.66406 13.4062 6.04297 13.3379C6.54199 13.2461 7.05762 13.2266 7.55664 13.2988C9.66602 13.6074 11.4619 14.5527 12.9668 16.0469C13.8262 16.9004 14.4766 17.918 15.1465 18.9121C15.8584 19.9688 16.625 20.9746 17.6006 21.7988C17.9443 22.0879 18.2197 22.3086 18.4824 22.4707C17.6895 22.5586 16.3652 22.5781 15.46 21.8613ZM16.4502 15.4805C16.4502 15.3105 16.5859 15.1758 16.7568 15.1758C16.7949 15.1758 16.8301 15.1836 16.8613 15.1953C16.9033 15.2109 16.9424 15.2344 16.9727 15.2695C17.0273 15.3223 17.0586 15.4004 17.0586 15.4805C17.0586 15.6504 16.9229 15.7852 16.7529 15.7852C16.582 15.7852 16.4502 15.6504 16.4502 15.4805ZM19.5273 17.0625C19.3301 17.1426 19.1328 17.2129 18.9434 17.2207C18.6494 17.2344 18.3281 17.1152 18.1533 16.9688C17.8828 16.7422 17.6895 16.6152 17.6074 16.2168C17.5732 16.0469 17.5928 15.7852 17.623 15.6348C17.6934 15.3105 17.6152 15.1035 17.3877 14.9141C17.2012 14.7598 16.9658 14.7188 16.7061 14.7188C16.6094 14.7188 16.5205 14.6758 16.4541 14.6406C16.3457 14.5859 16.2568 14.4512 16.3418 14.2852C16.3691 14.2324 16.501 14.1016 16.5322 14.0781C16.8838 13.877 17.29 13.9434 17.666 14.0938C18.0146 14.2363 18.2773 14.498 18.6562 14.8672C19.0439 15.3145 19.1133 15.4395 19.334 15.7734C19.5078 16.0371 19.667 16.3066 19.7754 16.6152C19.8408 16.8066 19.7559 16.9648 19.5273 17.0625Z" fill-rule="nonzero" fill="#4D6BFE">
	</path>
</svg>

<svg xmlns="http://www.w3.org/2000/svg" fill="none" viewBox="0 0 30 30"><path fill="#4d6bfe" d="M27.501 8.469c-.252-.123-.36.111-.508.23-.05.04-.093.09-.135.135-.368.395-.797.652-1.358.621-.821-.045-1.521.213-2.14.842-.133-.776-.57-1.238-1.235-1.535-.349-.155-.701-.309-.944-.645-.171-.238-.217-.504-.303-.765-.054-.159-.108-.32-.29-.348-.197-.031-.274.135-.352.273-.31.567-.43 1.192-.419 1.825.028 1.421.628 2.554 1.82 3.36.136.093.17.186.128.321-.081.277-.178.547-.264.824-.054.178-.135.217-.324.14a5.5 5.5 0 0 1-1.719-1.169c-.848-.82-1.614-1.726-2.57-2.435-.225-.166-.449-.32-.681-.467-.976-.95.128-1.729.383-1.82.267-.096.093-.428-.77-.424s-1.653.293-2.659.677a3 3 0 0 1-.46.135 9.6 9.6 0 0 0-2.853-.1c-1.866.21-3.356 1.092-4.452 2.6-1.315 1.81-1.625 3.87-1.246 6.018.399 2.261 1.552 4.136 3.326 5.601 1.837 1.518 3.955 2.262 6.37 2.12 1.467-.085 3.1-.282 4.942-1.842.465.23.952.322 1.762.392.623.059 1.223-.031 1.687-.127.728-.154.677-.828.414-.953-2.132-.994-1.665-.59-2.09-.916 1.084-1.285 2.717-2.619 3.356-6.94.05-.343.007-.558 0-.837-.004-.168.034-.235.227-.254a4.1 4.1 0 0 0 1.53-.47c1.382-.757 1.938-1.997 2.07-3.485.02-.227-.004-.463-.243-.582M15.46 21.86c-2.067-1.627-3.07-2.162-3.483-2.138-.387.021-.318.465-.233.754.089.285.205.482.368.732.113.166.19.414-.112.598-.666.414-1.823-.139-1.878-.166-1.347-.793-2.473-1.842-3.267-3.276-.765-1.38-1.21-2.861-1.284-4.441-.02-.383.093-.518.472-.586a4.7 4.7 0 0 1 1.514-.04c2.109.31 3.905 1.255 5.41 2.749.86.853 1.51 1.871 2.18 2.865.711 1.057 1.478 2.063 2.454 2.887.343.289.619.51.881.672-.793.088-2.117.107-3.022-.61m.99-6.38a.304.304 0 1 1 .609 0c0 .17-.136.304-.306.304a.3.3 0 0 1-.303-.305m3.077 1.582c-.197.08-.394.15-.584.158a1.25 1.25 0 0 1-.79-.252c-.27-.227-.463-.354-.546-.752a1.8 1.8 0 0 1 .016-.582c.07-.325-.008-.531-.235-.72-.187-.155-.422-.196-.682-.196a.55.55 0 0 1-.252-.078c-.108-.055-.197-.19-.112-.356.027-.053.159-.183.19-.207.352-.201.758-.135 1.134.016.349.142.611.404.99.773.388.447.457.572.678.906.174.264.333.534.441.842.066.192-.02.35-.248.448"/></svg>
